src/modules/31-filestore/images/folder-add.svg

<svg fill="none" height="16" viewBox="0 0 16 16" width="16" xmlns="http://www.w3.org/2000/svg"><path d="m2.66675 2.6665h4l1.33333 2h5.33332v8.6667h-10.66665z" stroke="#383946" stroke-linecap="round" stroke-linejoin="round"/><path d="m8.66675 2.66683h4.66665" opacity=".3" stroke="#383946" stroke-linecap="round" stroke-linejoin="round"/><path d="m7.99852 11c-.21977 0-.39793-.1782-.39793-.3979v-3.20417c0-.21977.17816-.39793.39793-.39793s.39793.17816.39793.39793v3.20417c0 .2197-.17816.3979-.39793.3979zm-1.60059-1.60355c-.21977 0-.39793-.17816-.39793-.39793s.17816-.39793.39793-.39793h3.20414c.21977 0 .39793.17816.39793.39793s-.17816.39793-.39793.39793z" fill="#383946"/></svg>

<svg width="16" height="16" viewBox="0 0 16 16" fill="none" xmlns="http://www.w3.org/2000/svg">
<path d="M2.66675 2.6665H6.66675L8.00008 4.6665H13.3334V13.3332H2.66675V2.6665Z" stroke="#383946" stroke-linecap="round" stroke-linejoin="round"/>
<path opacity="0.3" d="M8.66675 2.66683H13.3334" stroke="#383946" stroke-linecap="round" stroke-linejoin="round"/>
<path d="M7.99852 11C7.77875 11 7.60059 10.8218 7.60059 10.6021V7.39793C7.60059 7.17816 7.77875 7 7.99852 7C8.21829 7 8.39645 7.17816 8.39645 7.39793V10.6021C8.39645 10.8218 8.21829 11 7.99852 11ZM6.39793 9.39645C6.17816 9.39645 6 9.21829 6 8.99852C6 8.77875 6.17816 8.60059 6.39793 8.60059H9.60207C9.82184 8.60059 10 8.77875 10 8.99852C10 9.21829 9.82184 9.39645 9.60207 9.39645H6.39793Z" fill="#383946"/>
</svg>
